X:1
T:Polsk 
T:(Totakt-pols, nr. JCN-112)
S:efter J C Nielsen
R:Totakt-pols
O:Ribe amt, Danmark
N:Lt nr. 9 p CD:n "Totakt-pols" av ke Persson, Ethel Wieslander m fl. Noterna kommer frn nothftet som kan kpas med CD:n s vissa avvikelser kan frekomma. Lten har dr beteckningen JCN-112. Danmark|Fler ltar frn Danmark...
M:2/4
L:1/16
K:G
|: g2g2d2d2 | BcdB G2G2 | ABcA F2A2 | GABc d2d2 | g2g2d2d2 | BcdB G2G2 | ABcA F2A2 | G4 z4 :|
|: g2g2b2b2 | fgaf d2d2 | g2g2b2b2 | fgaf d2d2 | g2g2d2d2 | BcdB G2G2 | ABcA F2A2 | G4 z4 :|
